assets/images/Image/Maleicon.svg

<svg width="48" height="48" viewBox="0 0 48 48" fill="none" xmlns="http://www.w3.org/2000/svg">
<path d="M19 28C20.1046 28 21 27.1046 21 26C21 24.8954 20.1046 24 19 24C17.8954 24 17 24.8954 17 26C17 27.1046 17.8954 28 19 28Z" fill="#142939"/>
<path d="M29 28C30.1046 28 31 27.1046 31 26C31 24.8954 30.1046 24 29 24C27.8954 24 27 24.8954 27 26C27 27.1046 27.8954 28 29 28Z" fill="#142939"/>
<path d="M19.2 6.20001C13.6 7.80001 10.5 12.2 10.5 18.5V22.9C9.3 23.5 8.5 24.6 8.5 26C8.5 27.9 10.1 29.5 12 29.5C12 29.5 12 29.5 12.1 29.5C13.7 37 18.4 42.5 24 42.5C29.6 42.5 34.4 37 35.9 29.5C35.9 29.5 35.9 29.5 36 29.5C37.9 29.5 39.5 27.9 39.5 26C39.5 24.6 38.7 23.4 37.5 22.9" stroke="#142939" stroke-width="3" stroke-miterlimit="10" stroke-linecap="round" stroke-linejoin="round"/>
<path d="M16.5 16.5C18.4 15 19 13.5 19 13.5C19 13.5 22 16.5 30 16.5C33.3 16.5 36 16 37.4 15.6C38.3 15.3 38.8 14.3 38.4 13.4C36.3 9.09998 32 5.99998 26 5.59998" stroke="#142939" stroke-width="3" stroke-miterlimit="10" stroke-linecap="round" stroke-linejoin="round"/>
</svg>

<svg xmlns="http://www.w3.org/2000/svg"  viewBox="0 0 48 48" width="48px" height="48px"><circle cx="19" cy="26" r="2"/><circle cx="29" cy="26" r="2"/><path fill="none" stroke="#000" stroke-linecap="round" stroke-linejoin="round" stroke-miterlimit="10" stroke-width="3" d="M19.2,6.2c-5.6,1.6-8.7,6-8.7,12.3v4.4c-1.2,0.6-2,1.7-2,3.1c0,1.9,1.6,3.5,3.5,3.5c0,0,0,0,0.1,0	c1.6,7.5,6.3,13,11.9,13s10.4-5.5,11.9-13c0,0,0,0,0.1,0c1.9,0,3.5-1.6,3.5-3.5c0-1.4-0.8-2.6-2-3.1"/><path fill="none" stroke="#000" stroke-linecap="round" stroke-linejoin="round" stroke-miterlimit="10" stroke-width="3" d="M16.5,16.5c1.9-1.5,2.5-3,2.5-3s3,3,11,3c3.3,0,6-0.5,7.4-0.9c0.9-0.3,1.4-1.3,1-2.2C36.3,9.1,32,6,26,5.6"/></svg>
